X:1
T:Engelska i D efter Ola Olsson
C:Ola Nilsson
O:Skarup, Blekinge
R:Engelska
M:2/4
L:1/16
Z:Andy Davey 2018
K:D
Q:1/4=90
dced f4 | fegf a4 | a2ba fdfa | agec d2A2 :| 
|:AFAd B2Bd | cdec defd | AFAd B2Bd | cdec d4 :|

